src/assets/duotone/NotificationFavorite.svg

<svg width="24" height="24" viewBox="0 0 24 24"  xmlns="http://www.w3.org/2000/svg">
<path d="M19 8C20.6569 8 22 6.65685 22 5C22 3.34315 20.6569 2 19 2C17.3431 2 16 3.34315 16 5C16 6.65685 17.3431 8 19 8Z" />
<path opacity="0.4" d="M19 9.5C16.52 9.5 14.5 7.48 14.5 5C14.5 4.28 14.69 3.61 14.99 3H7.52C4.07 3 2 5.06 2 8.52V16.47C2 19.94 4.07 22 7.52 22H15.47C18.93 22 20.99 19.94 20.99 16.48V9.01C20.39 9.31 19.72 9.5 19 9.5Z" />
<path d="M10.9002 12.3596C10.3302 12.1796 9.72023 12.2796 9.29023 12.6196C8.85023 12.2796 8.25023 12.1796 7.69023 12.3596C6.46023 12.7596 6.07023 14.1596 6.42023 15.2396C6.95023 16.8796 8.68023 17.7296 9.30023 17.7296C9.91023 17.7296 11.6702 16.8596 12.1802 15.2396C12.5302 14.1596 12.1302 12.7596 10.9002 12.3596Z" />
</svg>

<?xml version="1.0" encoding="UTF-8"?>
<svg width="24" height="24" viewBox="0 0 24 24" xmlns="http://www.w3.org/2000/svg">
 <path d="m19 8c1.6569 0 3-1.3432 3-3s-1.3431-3-3-3-3 1.3432-3 3 1.3431 3 3 3z"/>
 <path d="m19 9.5c-2.48 0-4.5-2.02-4.5-4.5 0-0.72 0.19-1.39 0.49-2h-7.47c-3.45 0-5.52 2.06-5.52 5.52v7.95c0 3.47 2.07 5.53 5.52 5.53h7.95c3.46 0 5.52-2.06 5.52-5.52v-7.47c-0.6 0.3-1.27 0.49-1.99 0.49z" opacity=".4"/>
 <path d="m10.9 12.36c-0.57-0.18-1.18-0.08-1.61 0.26-0.44-0.34-1.04-0.44-1.6-0.26-1.23 0.4-1.62 1.8-1.27 2.88 0.53 1.64 2.26 2.49 2.88 2.49 0.61 0 2.37-0.87 2.88-2.49 0.35-1.08-0.05-2.48-1.28-2.88z"/>
</svg>
